icons/chat.svg

<?xml version="1.0" standalone="no"?><!-- Generator: Gravit.io --><svg xmlns="http://www.w3.org/2000/svg" xmlns:xlink="http://www.w3.org/1999/xlink" width="96" height="96"><path d=" M 36 89.50000038146972 L 36.1 77.80000038146972 L 36.1 77.80000038146972 L 36.1 77.80000038146972 L 36.1 77.80000038146972 L 36.1 77.80000038146972 L 16 77.80000038146972 C 13.9 77.80000038146972 11.8 77.00000038146972 10.3 75.50000038146972 C 8.8 74.00000038146972 8 71.90000038146972 8 69.80000038146972 L 8 31.80000038146971 C 8 29.700000381469717 8.8 27.600000381469716 10.3 26.100000381469716 C 11.8 24.600000381469716 13.9 23.800000381469715 16 23.800000381469715 L 80 23.800000381469715 C 82.1 23.800000381469715 84.2 24.600000381469716 85.7 26.100000381469716 C 87.2 27.600000381469716 88 29.700000381469717 88 31.80000038146971 L 88 69.80000038146972 C 88 71.90000038146972 87.2 74.00000038146972 85.7 75.50000038146972 C 84.2 77.00000038146972 82.1 77.80000038146972 80 77.80000038146972 L 68.3 77.80000038146972 C 66.6 77.80000038146972 65 78.40000038146972 63.7 79.40000038146972 L 45.2 94.70000038146972 L 43.1 95.60000038146971 C 42.3 96.00000038146972 41.4 96.10000038146971 40.6 95.90000038146972 C 37.7 95.30000038146972 35.7 92.50000038146972 36 89.50000038146972 C 36 89.40000038146972 36.1 89.20000038146972 36.1 89.00000038146972 L 36 89.80000038146972 L 36 89.80000038146972 L 36 89.50000038146972 Z  M 44.1 85.30000038146972 L 44.1 77.80000038146972 L 44.1 77.80000038146972 C 44.1 77.80000038146972 44.1 77.80000038146972 44.1 77.80000038146972 C 44.1 75.70000038146972 43.3 73.60000038146971 41.8 72.10000038146971 C 40.3 70.60000038146971 38.2 69.80000038146972 36.1 69.80000038146972 L 16 69.80000038146972 L 16 31.80000038146971 L 80 31.80000038146971 L 80 69.80000038146972 L 68.2 69.80000038146972 C 64.7 69.80000038146972 61.3 71.00000038146972 58.6 73.30000038146972 L 44.1 85.30000038146972 Z " fill-rule="evenodd" fill="#454545" stroke="none"/><mask id="_mask_vPtK3GoWA5hNNcTqsFVzi141qK9Zmlgo"><path d=" M 36 89.50000038146972 L 36.1 77.80000038146972 L 36.1 77.80000038146972 L 36.1 77.80000038146972 L 36.1 77.80000038146972 L 36.1 77.80000038146972 L 16 77.80000038146972 C 13.9 77.80000038146972 11.8 77.00000038146972 10.3 75.50000038146972 C 8.8 74.00000038146972 8 71.90000038146972 8 69.80000038146972 L 8 31.80000038146971 C 8 29.700000381469717 8.8 27.600000381469716 10.3 26.100000381469716 C 11.8 24.600000381469716 13.9 23.800000381469715 16 23.800000381469715 L 80 23.800000381469715 C 82.1 23.800000381469715 84.2 24.600000381469716 85.7 26.100000381469716 C 87.2 27.600000381469716 88 29.700000381469717 88 31.80000038146971 L 88 69.80000038146972 C 88 71.90000038146972 87.2 74.00000038146972 85.7 75.50000038146972 C 84.2 77.00000038146972 82.1 77.80000038146972 80 77.80000038146972 L 68.3 77.80000038146972 C 66.6 77.80000038146972 65 78.40000038146972 63.7 79.40000038146972 L 45.2 94.70000038146972 L 43.1 95.60000038146971 C 42.3 96.00000038146972 41.4 96.10000038146971 40.6 95.90000038146972 C 37.7 95.30000038146972 35.7 92.50000038146972 36 89.50000038146972 C 36 89.40000038146972 36.1 89.20000038146972 36.1 89.00000038146972 L 36 89.80000038146972 L 36 89.80000038146972 L 36 89.50000038146972 Z  M 44.1 85.30000038146972 L 44.1 77.80000038146972 L 44.1 77.80000038146972 C 44.1 77.80000038146972 44.1 77.80000038146972 44.1 77.80000038146972 C 44.1 75.70000038146972 43.3 73.60000038146971 41.8 72.10000038146971 C 40.3 70.60000038146971 38.2 69.80000038146972 36.1 69.80000038146972 L 16 69.80000038146972 L 16 31.80000038146971 L 80 31.80000038146971 L 80 69.80000038146972 L 68.2 69.80000038146972 C 64.7 69.80000038146972 61.3 71.00000038146972 58.6 73.30000038146972 L 44.1 85.30000038146972 Z " fill-rule="evenodd" fill="white" stroke="none"/></mask><path d=" M 36 89.50000038146972 L 36.1 77.80000038146972 L 36.1 77.80000038146972 L 36.1 77.80000038146972 L 36.1 77.80000038146972 L 36.1 77.80000038146972 L 16 77.80000038146972 C 13.9 77.80000038146972 11.8 77.00000038146972 10.3 75.50000038146972 C 8.8 74.00000038146972 8 71.90000038146972 8 69.80000038146972 L 8 31.80000038146971 C 8 29.700000381469717 8.8 27.600000381469716 10.3 26.100000381469716 C 11.8 24.600000381469716 13.9 23.800000381469715 16 23.800000381469715 L 80 23.800000381469715 C 82.1 23.800000381469715 84.2 24.600000381469716 85.7 26.100000381469716 C 87.2 27.600000381469716 88 29.700000381469717 88 31.80000038146971 L 88 69.80000038146972 C 88 71.90000038146972 87.2 74.00000038146972 85.7 75.50000038146972 C 84.2 77.00000038146972 82.1 77.80000038146972 80 77.80000038146972 L 68.3 77.80000038146972 C 66.6 77.80000038146972 65 78.40000038146972 63.7 79.40000038146972 L 45.2 94.70000038146972 L 43.1 95.60000038146971 C 42.3 96.00000038146972 41.4 96.10000038146971 40.6 95.90000038146972 C 37.7 95.30000038146972 35.7 92.50000038146972 36 89.50000038146972 C 36 89.40000038146972 36.1 89.20000038146972 36.1 89.00000038146972 L 36 89.80000038146972 L 36 89.80000038146972 L 36 89.50000038146972 Z  M 44.1 85.30000038146972 L 44.1 77.80000038146972 L 44.1 77.80000038146972 C 44.1 77.80000038146972 44.1 77.80000038146972 44.1 77.80000038146972 C 44.1 75.70000038146972 43.3 73.60000038146971 41.8 72.10000038146971 C 40.3 70.60000038146971 38.2 69.80000038146972 36.1 69.80000038146972 L 16 69.80000038146972 L 16 31.80000038146971 L 80 31.80000038146971 L 80 69.80000038146972 L 68.2 69.80000038146972 C 64.7 69.80000038146972 61.3 71.00000038146972 58.6 73.30000038146972 L 44.1 85.30000038146972 Z " fill-rule="evenodd" fill="none" stroke="none" stroke-width="16" mask="url(#_mask_vPtK3GoWA5hNNcTqsFVzi141qK9Zmlgo)"/></svg>

<svg xmlns="http://www.w3.org/2000/svg" width="96" height="96"><path d="M36 89.5l.1-11.7H16c-2.1 0-4.2-.8-5.7-2.3C8.8 74 8 71.9 8 69.8v-38c0-2.1.8-4.2 2.3-5.7 1.5-1.5 3.6-2.3 5.7-2.3h64c2.1 0 4.2.8 5.7 2.3 1.5 1.5 2.3 3.6 2.3 5.7v38c0 2.1-.8 4.2-2.3 5.7-1.5 1.5-3.6 2.3-5.7 2.3H68.3c-1.7 0-3.3.6-4.6 1.6L45.2 94.7l-2.1.9c-.8.4-1.7.5-2.5.3-2.9-.6-4.9-3.4-4.6-6.4 0-.1.1-.3.1-.5l-.1.8v-.3zm8.1-4.2v-7.5c0-2.1-.8-4.2-2.3-5.7-1.5-1.5-3.6-2.3-5.7-2.3H16v-38h64v38H68.2c-3.5 0-6.9 1.2-9.6 3.5l-14.5 12z" fill-rule="evenodd" fill="#454545"/></svg>
